X: 16803
T: Harris Dance Tune
R: reel
M: 4/4
K: Amajor
ce (3eee faec|ecec B2 AB|ce (3eee faec|ecec A2 AB|
ce (3eee faec|ecec B2 ^g2|a2 gf dfeA|dBec A2||
a2 gf dfeA|d2 ef dfeA|a2 gf dfeA|dBee A2:|

